X:1
T:Title
%%score { ( 1 2 6 ) | ( 3 4 5 ) }
L:1/8
Q:1/4=87
M:6/8
K:G
V:1 treble nm="Grand Piano"
V:2 treble 
V:6 treble 
V:3 bass 
V:4 bass 
V:5 bass 
V:1
 z cc [Ee][Gg][Aa] | z gg [_B^ce_b]3 | z3 .d3 |[M:5/8] [B,G]-[B,G]- [B,G]3[K:bass] | %4
[M:4/4] z[K:treble] .[DGB]3 z .[DFAd]3 | z .[EGB]3[K:bass][K:treble] z [FBd]3 | z .e3 z .d3 | %7
 B [GB]2 A .G2 F2 | z .[DGB]3 z .[DFAd]3 | z .[EGB]3[K:bass][K:treble] z [FBd]3 |[M:9/8] z9 | %11
[M:7/8] B[K:bass]DD [F,A,CD]2 [D,G,B,D]2- |[M:1/8] [D,G,B,D] |[M:6/8] z[K:treble] [DGB]2- [DGB]3 | %14
 z [EGB]2- [EGB]3 | B[DFd]c B[CFA][DG] | z [DGB]2- [DGB]3 | D [DFc]2- [DFc]3 | z [DFc]2- [DFc]3 | %19
 z [CDFA][B,D=F^G] [CD^FA][DFd][FA] | .[F_B]3 z G,2- | G, [EGe]2- [EGe][EGe][Ae] | %22
 [_Be] [D=Bd]2- [DBd][K:bass] [D,G,B,D]2- | [D,G,B,D][K:treble] [DFc]2- [DFc][DFc][DFc] | %24
 [DFc] [^DFB]2- [DFB]3- | [DFB] [B,EG]2- [B,EG][CEG]G | %26
[M:15/16] A[EG_B]/- [EGB]3- [EGB][EGB]-<[EGB]- |[M:3/4] [EGB][D=B] BB dA | %28
[M:5/8] z [B,G]- [B,G]3- |[M:1/8] [B,G] |[M:4/4] z .[DGB]3 z .[DFAd]3 | %31
 z .[EGB]3[K:bass][K:treble] z [FBd]3 | z .e3 z .d3 | B [GB]2 A .G2 F2 | z .[DGB]3 z .[DFAd]3 | %35
 z .[EGB]3[K:bass][K:treble] z [FBd]3 |[M:9/8] z9 |[M:7/8] B[K:bass]DD [F,A,CD]2 [D,G,B,D]2- | %38
[M:1/8] [D,G,B,D] |[M:6/8] z[K:treble] [DGB]2- [DGB]3 | z [EGB]2- [EGB]3 | B[DFd]c B[CFA][DG] | %42
 z [DGB]2- [DGB]3 | D [DFc]2- [DFc]3 | z [DFc]2- [DFc]3 | z [CDFA][B,D=F^G] [CD^FA][DFd][FA] | %46
 .[F_B]3 z G,2- | G, [EGe]2- [EGe][EGe][Ae] | [_Be] [D=Bd]2- [DBd][K:bass] [D,G,B,D]2- | %49
 [D,G,B,D][K:treble] [DFc]2- [DFc][DFc][DFc] | [DFc] [^DFB]2- [DFB]3- | %51
 [DFB] [B,EG]2- [B,EG][CEG]G |[M:15/16] A[EG_B]/- [EGB]3- [EGB][EGB]-<[EGB]- | %53
[M:3/4] [EGB][D=B] BB dA |[M:5/8] z [B,G]- [B,G]3- |[M:1/8] [B,G] |[M:4/4] z .[DGB]3 z .[DFAd]3 | %57
 z .[EGB]3[K:bass][K:treble] z [FBd]3 | z .e3 z .d3 | B [GB]2 A .G2 F2 | z .[DGB]3 z .[DFAd]3 | %61
 z .[EGB]3[K:bass][K:treble] z [FBd]3 |[M:9/8] z9 |[M:7/8] BDD[K:bass] [F,A,CD]2 [D,G,B,D]2- | %64
[M:1/8] [D,G,B,D] |[Q:1/4=100] G |[M:4/4] G4 z4 | _B4 z4 | G4 z4 | _B6 z2 | ^d4 z4 | _B4 z4 | %72
 [C^DG]4 [CD=F]2 [DFAc]2 | [D^G_Bd]6 z2 | ^d4 z4 | c4 z4 | [=FAc=f]4 [Fcf]2 [FAc^d]2 | d6 z2 | %78
 [^DG_B^d]2 z2 .[DGcd]2 [DFAd]2 | [^DG_B^d]2 [Fc]2 [DGB]2 [CDG]2 | %80
 [=F^Gc]4 z2[K:bass] z[K:treble] ^d | [^DG_B^d]4 [dg]4 | ^d4- [^Gcdfc']4 | %83
[M:17/16] [_B^dg_b]/-[Bdgb]/-[Bdgb]/-[Bdgb]/-[Bdgb]/-[Bdgb]/-[Bdgb]/-[Bdgb]/-[Bdgb]/-[Bdgb]/-[Bdgb]/-[Bdgb]/-[Bdgb]/-[Bdgb]-<[Bdgb] |] %84
V:2
 [Ee]3 z3 | [_B_b]3 z3 | .[Bdb].g.e [DF]-[DFA][DFB] |[M:5/8] z z2[K:bass] D,2 | %4
[M:4/4] .D2[K:treble] D,[DGB] .[DGB]2 D,A | .[DA]2[K:bass] B,,[K:treble][EGB] .[EGB]2 .F,2 | %6
 .d2 cd .^c2 gd | z4 z A3 | .D2 D,[DGB] .[DGB]2 D,A | %9
 .[DA]2[K:bass] B,,[K:treble][EGB] .[EGB]2 .F,2 |[M:9/8] d[EAc][D^GB] [EA]E=G- G2 A | %11
[M:7/8] x[K:bass] x6 |[M:1/8] x |[M:6/8] x[K:treble] x5 | z3 F, G,2 | x6 | .[DFA]3 F, G,2 | x6 | %18
 x6 | x6 | z [DG=B]2- [DGB]3- | [DGB]3 z3 | x4[K:bass] x2 | x[K:treble] x5 | x6 | x6 | %26
[M:15/16] x15/2 |[M:3/4] x6 |[M:5/8] B G,3 D,- |[M:1/8] D, |[M:4/4] .D2 D,[DGB] .[DGB]2 D,A | %31
 .[DA]2[K:bass] B,,[K:treble][EGB] .[EGB]2 .F,2 | .d2 cd .^c2 gd | z4 z A3 | %34
 .D2 D,[DGB] .[DGB]2 D,A | .[DA]2[K:bass] B,,[K:treble][EGB] .[EGB]2 .F,2 | %36
[M:9/8] d[EAc][D^GB] [EA]E=G- G2 A |[M:7/8] x[K:bass] x6 |[M:1/8] x |[M:6/8] x[K:treble] x5 | %40
 z3 F, G,2 | x6 | .[DFA]3 F, G,2 | x6 | x6 | x6 | z [DG=B]2- [DGB]3- | [DGB]3 z3 | x4[K:bass] x2 | %49
 x[K:treble] x5 | x6 | x6 |[M:15/16] x15/2 |[M:3/4] x6 |[M:5/8] B G,3 D,- |[M:1/8] D, | %56
[M:4/4] .D2 D,[DGB] .[DGB]2 D,A | .[DA]2[K:bass] B,,[K:treble][EGB] .[EGB]2 .F,2 | .d2 cd .^c2 gd | %59
 z4 z A3 | .D2 D,[DGB] .[DGB]2 D,A | .[DA]2[K:bass] B,,[K:treble][EGB] .[EGB]2 .F,2 | %62
[M:9/8] d[EAc][D^GB] [EA]E=G- G2 A |[M:7/8] x3[K:bass] x4 |[M:1/8] x | x |[M:4/4] z2 ^D2 G2 G2 | %67
 z2 =F2 ^D2 D2 | z2 ^D2 G2 G2 | z2 =F2 ^D2 [^G_B]2 | [^DG_B]2 [DGc]2 [=F^G=d]2 [DGc]2 | %71
 [_B,^D]2 [B,=D^G]2 [B,^D=G]2 [CDG]2 | x8 | z2 C2 _B,2 [D=F_B]2 | [^D_B]2 [DGB]2 [D^GB^d]2 [DBd]2 | %75
 [^D^G]2 [E_B]2 [=FGc]2 [E=GBc]2 | x8 | [=F_B]4 [DGB]2 [D^GB]2 | x8 | x8 | %80
 z4 [=F^G_Bd]4[K:bass][K:treble] | x8 | [^Gc^g]4 z4 | %83
[M:17/16] z/ z/ z/ z/ z/ z/ z ^D,/-D,/-D,/-D,/-D,/-D,-<D, |] %84
V:3
 z[K:treble] GG[K:bass] [C,C]3 | z[K:treble] ee[K:bass] [^C,G,]3 | %2
 z[K:treble] .[Be].[GB][K:bass] [D,A,C]2 [D,F,C] |[M:5/8] G,3 z2 | %4
[M:4/4] z G,,2- [G,,D,G,B,]- [G,,D,G,B,] A,2 [F,A,C]- | [F,A,C] E,2 [E,G,B,]- [E,G,B,] .B,3 | %6
 .[FB]2[K:treble] G[DGB] [^CEG_B][G=B]B[B,GB] | z4[K:bass][K:treble] z [CG] z2 | %8
 z4[K:bass] z2 z D | z4 z2 z [F,B,]- |[M:9/8] [F,B,]3 z3 z3 |[M:7/8] z B,B, D,2 G,,2- | %12
[M:1/8] G,, |[M:6/8] .D2 E, F, G,2 | .D2 E, z3 | z2 [EF] .[DF]2 B, | .C2 E, z3 | z2 A, ^G, A,2 | %18
 .D2 A, ^G, A,2 | BD,D, .D,2 D | DG,,B,, D, G,,2- | G,,C,E, .G,2 E | EG,,B,, D, G,,2- | %23
 G,,D,,D, F,A,^G, | A,B,,^D, .F,3 | A, G,2- G, z [CE] | %26
[M:15/16] [CE][C,G,C]/- [C,G,C]3- [C,G,C][^C,G,]-<[C,G,]- | %27
[M:3/4] [C,G,] z[K:treble] GE[K:bass] DC |[M:5/8] D G,,3 G,,- |[M:1/8] G,, | %30
[M:4/4] z G,,2- [G,,D,G,B,]- [G,,D,G,B,] A,2 [F,A,C]- | [F,A,C] E,2 [E,G,B,]- [E,G,B,] .B,3 | %32
 .[FB]2[K:treble] G[DGB] [^CEG_B][G=B]B[B,GB] | z4[K:bass][K:treble] z [CG] z2 | %34
 z4[K:bass] z2 z D | z4 z2 z [F,B,]- |[M:9/8] [F,B,]3 z3 z3 |[M:7/8] z B,B, D,2 G,,2- | %38
[M:1/8] G,, |[M:6/8] .D2 E, F, G,2 | .D2 E, z3 | z2 [EF] .[DF]2 B, | .C2 E, z3 | z2 A, ^G, A,2 | %44
 .D2 A, ^G, A,2 | BD,D, .D,2 D | DG,,B,, D, G,,2- | G,,C,E, .G,2 E | EG,,B,, D, G,,2- | %49
 G,,D,,D, F,A,^G, | A,B,,^D, .F,3 | A, G,2- G, z [CE] | %52
[M:15/16] [CE][C,G,C]/- [C,G,C]3- [C,G,C][^C,G,]-<[C,G,]- | %53
[M:3/4] [C,G,] z[K:treble] GE[K:bass] DC |[M:5/8] D G,,3 G,,- |[M:1/8] G,, | %56
[M:4/4] z G,,2- [G,,D,G,B,]- [G,,D,G,B,] A,2 [F,A,C]- | [F,A,C] E,2 [E,G,B,]- [E,G,B,] .B,3 | %58
 .[FB]2[K:treble] G[DGB] [^CEG_B][G=B]B[B,GB] | z4[K:bass][K:treble] z [CG] z2 | %60
 z4[K:bass] z2 z D | z4 z2 z [F,B,]- |[M:9/8] [F,B,]3 z3 z3 |[M:7/8] z B,B, D,2 G,,2- | %64
[M:1/8] G,, | G, |[M:4/4] [_B,^D]2 z2 [=D^D]2[K:treble] [CD]2 | [D^G]2 [^G,D]2 [=G,_B,]2 [G,B,]2 | %68
 [_B,^D]2 z2 [=D^D]2 z2 | [D^G]2 z2[K:bass] z4 | [^D,,^D,]2 [C,C]2 [_B,,_B,]2 [^G,,^G,]2 | %71
 [G,,G,]2 [=F,,=F,]2 [^D,,^D,]2 [C,,C,]2 | [=F,,=F,]2 [G,,G,]2 [A,,A,]2 [F,,F,]2 | %73
 [_B,,_B,]2 C,2 B,,2 [^G,,^G,]2 | [G,,G,]2 [^D,,^D,]2 [=F,,=F,]2 [G,,G,]2 | %75
 [^G,,^G,]2 [=G,,=G,]2 [=F,,=F,]2 [^D,,^D,]2 | [=F,,=F,]2 [G,,G,]2 [A,,A,]2 [F,,F,]2 | %77
 [_B,,_B,]2 [^G,,^G,]2 [=G,,=G,]2 [=F,,=F,]2 | [^D,,^D,]2 [^C,^C]2 [=C,=C]2 [B,,C]2 | %79
 [_B,,_B,]2 [A,,A,]2 [B,,B,]2 [C,,C,]2 | [^G,,^G,]2 [=F,,=F,]2 [_B,,_B,]2 z[K:treble] [G_B] | %81
 z4 [G_B]4 | [C,,C,]4 [B,,,B,,]4 | %83
[M:17/16] [_B,,,_B,,]/-[B,,,B,,]/-[B,,,B,,]/-[B,,,B,,]/-[B,,,B,,]-<[B,,,B,,][^D,,B,,]/-[D,,B,,]/-[D,,B,,]/-[D,,B,,]/-[D,,B,,]/-[D,,B,,]-<[D,,B,,] |] %84
V:4
 [C,C]3[K:treble][K:bass] z3 | [C,G,C]3[K:treble][K:bass] z3 | [D,G,]3[K:treble][K:bass] z3 | %3
[M:5/8] G,,-G,,- G,,3 |[M:4/4] z4 z2 z D | z4 z2 z [F,B,]- | [F,B,][K:treble] z z2 z4 | %7
 [G,DG][K:bass] [E,^CE]2 [F,=CDF][K:treble] [G,B,E]A,- [A,CD]2 | %8
 z[K:bass] G,,2- [G,,D,G,B,]- [G,,D,G,B,] A,2 [F,A,C]- | [F,A,C] E,2 [E,G,B,]- [E,G,B,] .B,3 | %10
[M:9/8] [=FB][A,,A,][B,,B,] [C,C][E,G,B,][^D,_B,^C]- [D,B,C]2 z |[M:7/8] z [D,G,]2 z z z2 | %12
[M:1/8] x |[M:6/8] z G,,2- G,,3- | G,, E,,2- E,,3- | E,, [D,A,]2- [D,A,] [D,,D,]2- | %16
 [D,,D,] G,,2- G,,3- | G,, [D,,D,]2- [D,,D,]3- | [D,,D,] D,2- D,3- | D,3 z [D,A,]2- | [D,A,]3 z3 | %21
 z3 z [C,C]2- | [C,C]3 z3 | x6 | z3 z B,2- | B,3 z [C,G,]2- |[M:15/16] [C,G,]3/2 z3/2 z3/2 z3 | %27
[M:3/4] z [D,G,]3[K:treble][K:bass] [D,F,]2- |[M:5/8] [D,F,] z z z2 |[M:1/8] x |[M:4/4] z4 z2 z D | %31
 z4 z2 z [F,B,]- | [F,B,][K:treble] z z2 z4 | %33
 [G,DG][K:bass] [E,^CE]2 [F,=CDF][K:treble] [G,B,E]A,- [A,CD]2 | %34
 z[K:bass] G,,2- [G,,D,G,B,]- [G,,D,G,B,] A,2 [F,A,C]- | [F,A,C] E,2 [E,G,B,]- [E,G,B,] .B,3 | %36
[M:9/8] [=FB][A,,A,][B,,B,] [C,C][E,G,B,][^D,_B,^C]- [D,B,C]2 z |[M:7/8] z [D,G,]2 z z z2 | %38
[M:1/8] x |[M:6/8] z G,,2- G,,3- | G,, E,,2- E,,3- | E,, [D,A,]2- [D,A,] [D,,D,]2- | %42
 [D,,D,] G,,2- G,,3- | G,, [D,,D,]2- [D,,D,]3- | [D,,D,] D,2- D,3- | D,3 z [D,A,]2- | [D,A,]3 z3 | %47
 z3 z [C,C]2- | [C,C]3 z3 | x6 | z3 z B,2- | B,3 z [C,G,]2- |[M:15/16] [C,G,]3/2 z3/2 z3/2 z3 | %53
[M:3/4] z [D,G,]3[K:treble][K:bass] [D,F,]2- |[M:5/8] [D,F,] z z z2 |[M:1/8] x |[M:4/4] z4 z2 z D | %57
 z4 z2 z [F,B,]- | [F,B,][K:treble] z z2 z4 | %59
 [G,DG][K:bass] [E,^CE]2 [F,=CDF][K:treble] [G,B,E]A,- [A,CD]2 | %60
 z[K:bass] G,,2- [G,,D,G,B,]- [G,,D,G,B,] A,2 [F,A,C]- | [F,A,C] E,2 [E,G,B,]- [E,G,B,] .B,3 | %62
[M:9/8] [=FB][A,,A,][B,,B,] [C,C][E,G,B,][^D,_B,^C]- [D,B,C]2 z |[M:7/8] z [D,G,]2 z z z2 | %64
[M:1/8] x | x |[M:4/4] ^D,4 D,4[K:treble] | _B,4 z4 | ^D,4 D,2- [D,C^D]2 | %69
 _B,2- [^G,B,D]2[K:bass] [=G,B,]2 [=F,B,D]2 | x8 | x8 | x8 | x8 | x8 | x8 | x8 | x8 | x8 | x8 | %80
 z4 z2 C,,2[K:treble] | [^D,,_B,,^D,]8 | x8 |[M:17/16] x17/2 |] %84
V:5
 x[K:treble] x2[K:bass] x3 | x[K:treble] x2[K:bass] x3 | x[K:treble] x2[K:bass] x3 |[M:5/8] x5 | %4
[M:4/4] z .G,3 z A,,3- | A,, E,,3- E,, B,,3- | B,,[K:treble] .E3 z .D3 | %7
 x[K:bass] x3[K:treble] x4 | z[K:bass] .G,3 z A,,3- | A,, E,,3- E,, B,,3- |[M:9/8] B,,3 z3 z3 | %11
[M:7/8] x7 |[M:1/8] x |[M:6/8] x6 | x6 | x6 | x6 | x6 | x6 | x6 | x6 | x6 | x6 | x6 | x6 | x6 | %26
[M:15/16] x15/2 |[M:3/4] x2[K:treble] x2[K:bass] x2 |[M:5/8] x5 |[M:1/8] x | %30
[M:4/4] z .G,3 z A,,3- | A,, E,,3- E,, B,,3- | B,,[K:treble] .E3 z .D3 | %33
 x[K:bass] x3[K:treble] x4 | z[K:bass] .G,3 z A,,3- | A,, E,,3- E,, B,,3- |[M:9/8] B,,3 z3 z3 | %37
[M:7/8] x7 |[M:1/8] x |[M:6/8] x6 | x6 | x6 | x6 | x6 | x6 | x6 | x6 | x6 | x6 | x6 | x6 | x6 | %52
[M:15/16] x15/2 |[M:3/4] x2[K:treble] x2[K:bass] x2 |[M:5/8] x5 |[M:1/8] x | %56
[M:4/4] z .G,3 z A,,3- | A,, E,,3- E,, B,,3- | B,,[K:treble] .E3 z .D3 | %59
 x[K:bass] x3[K:treble] x4 | z[K:bass] .G,3 z A,,3- | A,, E,,3- E,, B,,3- |[M:9/8] B,,3 z3 z3 | %63
[M:7/8] x7 |[M:1/8] x | x |[M:4/4] x6[K:treble] x2 | x8 | x8 | x4[K:bass] x4 | x8 | x8 | x8 | x8 | %74
 x8 | x8 | x8 | x8 | x8 | x8 | x7[K:treble] x | x8 | x8 |[M:17/16] x17/2 |] %84
V:6
 x6 | x6 | x6 |[M:5/8] x3[K:bass] x2 |[M:4/4] x[K:treble] x7 | z4[K:bass][K:treble] z2 z D- | %6
 D z z2 z4 | x8 | x8 | z4[K:bass][K:treble] z2 z D- |[M:9/8] D3 z3 z3 |[M:7/8] x[K:bass] x6 | %12
[M:1/8] x |[M:6/8] x[K:treble] x5 | x6 | x6 | x6 | x6 | x6 | x6 | x6 | x6 | x4[K:bass] x2 | %23
 x[K:treble] x5 | x6 | x6 |[M:15/16] x15/2 |[M:3/4] x6 |[M:5/8] x5 |[M:1/8] x |[M:4/4] x8 | %31
 z4[K:bass][K:treble] z2 z D- | D z z2 z4 | x8 | x8 | z4[K:bass][K:treble] z2 z D- | %36
[M:9/8] D3 z3 z3 |[M:7/8] x[K:bass] x6 |[M:1/8] x |[M:6/8] x[K:treble] x5 | x6 | x6 | x6 | x6 | %44
 x6 | x6 | x6 | x6 | x4[K:bass] x2 | x[K:treble] x5 | x6 | x6 |[M:15/16] x15/2 |[M:3/4] x6 | %54
[M:5/8] x5 |[M:1/8] x |[M:4/4] x8 | z4[K:bass][K:treble] z2 z D- | D z z2 z4 | x8 | x8 | %61
 z4[K:bass][K:treble] z2 z D- |[M:9/8] D3 z3 z3 |[M:7/8] x3[K:bass] x4 |[M:1/8] x | x |[M:4/4] x8 | %67
 x8 | x8 | x8 | x8 | x8 | x8 | x8 | x8 | x8 | x8 | x8 | x8 | x8 | z4 z2[K:bass] _B,,2[K:treble] | %81
 x8 | x8 |[M:17/16] x17/2 |] %84

